symbolic/22x22/apps/distributor-logo-backbox.svg

<svg width="22" height="22" version="1.1" xmlns="http://www.w3.org/2000/svg">
 <path d="m7 1.5c-0.265199 5.11e-5 -0.519519 0.1054325-0.707031 0.2929688l-5 5c-0.187536 0.1875117-0.292918 0.4418322-0.292969 0.7070312v13c5.5e-5 0.552262 0.447738 0.999945 1 1h12c0.265199-5.1e-5 0.519519-0.105433 0.707031-0.292969l6-6c0.187536-0.187512 0.292918-0.441832 0.292969-0.707031v-12c-5.5e-5 -0.5522619-0.447738-0.9999448-1-1zm-4 18c-2 2-1 1 0 0z" style="opacity:.2"/>
 <path d="m7 1c-0.265199 5.11e-5 -0.5195195 0.1054325-0.7070312 0.2929688l-5 5c-0.1875363 0.1875117-0.2929177 0.4418322-0.2929688 0.7070312v13c5.52e-5 0.552262 0.4477381 0.999945 1 1h12c0.265199-5.1e-5 0.519519-0.105433 0.707031-0.292969l6-6c0.187536-0.187512 0.292918-0.441832 0.292969-0.707031v-12c-5.5e-5 -0.5522619-0.447738-0.9999448-1-1zm-4 18c-2 2-1 1 0 0z" style="fill:#e4e4e4"/>
 <path d="m7 1c-0.265199 5.11e-5 -0.5195193 0.1054325-0.7070312 0.2929688l-5 5c-0.1875361 0.1875116-0.2929178 0.4418322-0.2929688 0.7070312v0.5c5.1e-5 -0.265199 0.1054327-0.5195196 0.2929688-0.7070312l5-5c0.1875119-0.1875363 0.4418322-0.2929177 0.7070312-0.2929688h13c0.552262 5.52e-5 0.999945 0.4477381 1 1v-0.5c-5.5e-5 -0.5522619-0.447738-0.9999448-1-1h-13z" style="fill:#ffffff;opacity:.2"/>
 <path d="m7 3.5c-0.265199 5.11e-5 -0.519519 0.1054325-0.707031 0.2929688l-3 3c-0.187536 0.1875117-0.292918 0.4418322-0.292969 0.7070312v11c5.5e-5 0.552262 0.447738 0.999945 1 1h10c0.265199-5.1e-5 0.519519-0.105433 0.707031-0.292969l4-4c0.187536-0.187512 0.292918-0.441832 0.292969-0.707031v-10c-5.5e-5 -0.5522619-0.447738-0.9999448-1-1z" style="opacity:.2"/>
 <path d="m7 3c-0.265199 5.11e-5 -0.5195195 0.1054325-0.7070312 0.2929688l-3 3c-0.1875363 0.1875117-0.2929177 0.4418322-0.2929688 0.7070312v11c5.52e-5 0.552262 0.4477381 0.999945 1 1h10c0.265199-5.1e-5 0.519519-0.105433 0.707031-0.292969l4-4c0.187536-0.187512 0.292918-0.441832 0.292969-0.707031v-10c-5.5e-5 -0.5522619-0.447738-0.9999448-1-1z" style="fill:#489ad4"/>
 <path d="m7 3c-0.265199 5.11e-5 -0.5195193 0.1054325-0.7070312 0.2929688l-3 3c-0.1875361 0.1875116-0.2929178 0.4418322-0.2929688 0.7070312v0.5c5.1e-5 -0.265199 0.1054327-0.5195196 0.2929688-0.7070312l3-3c0.1875119-0.1875363 0.4418322-0.2929177 0.7070312-0.2929688h11c0.552262 5.52e-5 0.999945 0.4477381 1 1v-0.5c-5.5e-5 -0.5522619-0.447738-0.9999448-1-1h-11z" style="fill:#ffffff;opacity:.2"/>
</svg>

<svg width="22" height="22" xmlns="http://www.w3.org/2000/svg"><path d="M7 1.5a1 1 0 0 0-.707.293l-5 5A1 1 0 0 0 1 7.5v13a1 1 0 0 0 1 1h12a1 1 0 0 0 .707-.293l6-6A1 1 0 0 0 21 14.5v-12a1 1 0 0 0-1-1zm-4 18c-2 2-1 1 0 0z" style="opacity:.2"/><path d="M7 1a1 1 0 0 0-.707.293l-5 5A1 1 0 0 0 1 7v13a1 1 0 0 0 1 1h12a1 1 0 0 0 .707-.293l6-6A1 1 0 0 0 21 14V2a1 1 0 0 0-1-1zM3 19c-2 2-1 1 0 0z" style="fill:#e4e4e4"/><path d="M7 1a1 1 0 0 0-.707.293l-5 5A1 1 0 0 0 1 7v.5a1 1 0 0 1 .293-.707l5-5A1 1 0 0 1 7 1.5h13a1 1 0 0 1 1 1V2a1 1 0 0 0-1-1H7z" style="fill:#fff;opacity:.2"/><path d="M7 3.5a1 1 0 0 0-.707.293l-3 3A1 1 0 0 0 3 7.5v11a1 1 0 0 0 1 1h10a1 1 0 0 0 .707-.293l4-4A1 1 0 0 0 19 14.5v-10a1 1 0 0 0-1-1z" style="opacity:.2"/><path d="M7 3a1 1 0 0 0-.707.293l-3 3A1 1 0 0 0 3 7v11a1 1 0 0 0 1 1h10a1 1 0 0 0 .707-.293l4-4A1 1 0 0 0 19 14V4a1 1 0 0 0-1-1z" style="fill:#489ad4"/><path d="M7 3a1 1 0 0 0-.707.293l-3 3A1 1 0 0 0 3 7v.5a1 1 0 0 1 .293-.707l3-3A1 1 0 0 1 7 3.5h11a1 1 0 0 1 1 1V4a1 1 0 0 0-1-1H7z" style="fill:#fff;opacity:.2"/></svg>
